icons/svg/vector-difference-ab.svg

<svg xmlns="http://www.w3.org/2000/svg" version="1.1" baseProfile="full" width="24" height="24" viewBox="0 0 24.00 24.00" xml:space="preserve"><path fill="#000" fill-opacity="1" stroke-width="1.333" stroke-linejoin="miter" d="M3 1c-1.108 0-2 .892-2 2v2h2V3h2V1H3zm4 0v2h3V1H7zm5 0v2h2v2h2V3c0-1.108-.892-2-2-2h-2zM1 7v3h2V7H1zm13 0v7H7v6c0 1.108.892 2 2 2h11c1.108 0 2-.892 2-2V9c0-1.108-.892-2-2-2h-6zm2 2h4v11H9v-4h5c1.108 0 2-.892 2-2V9zM1 12v2c0 1.108.892 2 2 2h2v-2H3v-2H1z"/></svg>

﻿<?xml version="1.0" encoding="utf-8"?>
<!DOCTYPE svg PUBLIC "-//W3C//DTD SVG 1.1//EN" "http://www.w3.org/Graphics/SVG/1.1/DTD/svg11.dtd">
<svg xmlns="http://www.w3.org/2000/svg" xmlns:xlink="http://www.w3.org/1999/xlink" version="1.1" baseProfile="full" width="24" height="24" viewBox="0 0 24.00 24.00" enable-background="new 0 0 24.00 24.00" xml:space="preserve">
	<path fill="#000000" fill-opacity="1" stroke-width="1.33333" stroke-linejoin="miter" d="M 3,1C 1.89199,1 1,1.892 1,3L 1,5L 3,5L 3,3L 5,3L 5,1L 3,1 Z M 7,1L 7,3L 10,3L 10,1L 7,1 Z M 12,1L 12,3L 14,3L 14,5L 16,5L 16,3C 16,1.892 15.108,1 14,1L 12,1 Z M 1,7L 1,10L 3,10L 3,7L 1,7 Z M 14,7C 14,7 14,11.6667 14,14C 11.6667,14 7,14 7,14C 7,14 7,18 7,20C 7,21.108 7.89199,22 9,22L 20,22C 21.108,22 22,21.108 22,20L 22,9C 22,7.892 21.108,7 20,7C 18,7 14,7 14,7 Z M 16,9L 20,9L 20,20L 9,20L 9,16L 14,16C 15.108,16 16,15.108 16,14L 16,9 Z M 1,12L 1,14C 1,15.108 1.89199,16 3,16L 5,16L 5,14L 3,14L 3,12L 1,12 Z "/>
</svg>
